X:1
T:The Munster Lass -- Jig
R:jig
B:Ryan's Mammoth Collection
N:84 428
Z: Contributed by Ray Davies,  ray:davies99.freeserve.co.uk
M:6/8
L:1/8
K:F
uC|\
FAc {g}fef | g>fe f3  | FAc f>ed | c>BA G2A |
FAc {g}fef | gfe fga | g>fe fed | cBA G2:|
|:ub|\
agf gfe | fcA F2b | agf gBA | {c}B>AB G2b |
agf gfe | fed cBA | Bdg Acf | {f}ede f2 H:|
